X: 10563
T: Dorrington Lads, The
R: slip jig
M: 9/8
K: Gmajor
e2|d2G2B2 d2BcdB g2d2B2|d2G2B2 d2BcdB c2A2e2|
e2|d4g2 f2a2g2 f2d2g2|f2a2g2 f2d2f2 e2cdec|
e2|d2G2B2 d2BcdB g2d2B2|d2G2B2 d2BcdB c2A2e2|
e2|d4g2 f2e2g2 f2d2g2|f2e2g2 f2d2f2 e2cdec|
d2B2g2 f2d2g2 fedfge|cBABcB A2cded c2A2||

